build/img/icon-2-stars.svg

<svg width="131" height="22" viewBox="0 0 131 22" fill="none" xmlns="http://www.w3.org/2000/svg">
  <path d="M9.94099 3.75198C10.242 2.83425 11.5403 2.83425 11.8414 3.75198L12.9511 7.13489C13.0858 7.54555 13.4691 7.82319 13.9013 7.82319H17.472C18.443 7.82319 18.8443 9.06768 18.0561 9.63487L15.1838 11.7018C14.83 11.9564 14.6819 12.411 14.8178 12.8252L15.9187 16.1814C16.2204 17.101 15.17 17.8701 14.3845 17.3048L11.4753 15.2113C11.1264 14.9602 10.656 14.9602 10.3071 15.2113L7.39789 17.3048C6.61231 17.8701 5.56193 17.101 5.86361 16.1814L6.96459 12.8252C7.10047 12.411 6.95235 11.9564 6.59851 11.7018L3.72626 9.63487C2.93809 9.06769 3.33933 7.82319 4.31037 7.82319H7.88107C8.31325 7.82319 8.69654 7.54555 8.83125 7.13489L9.94099 3.75198Z" fill="#070707"/>
  <path d="M37.3507 3.75198C37.6517 2.83425 38.95 2.83425 39.251 3.75198L40.3608 7.13489C40.4955 7.54555 40.8788 7.82319 41.3109 7.82319H44.8816C45.8527 7.82319 46.2539 9.06768 45.4658 9.63487L42.5935 11.7018C42.2397 11.9564 42.0915 12.411 42.2274 12.8252L43.3284 16.1814C43.6301 17.101 42.5797 17.8701 41.7941 17.3048L38.8849 15.2113C38.536 14.9602 38.0657 14.9602 37.7167 15.2113L34.8076 17.3048C34.022 17.8701 32.9716 17.101 33.2733 16.1814L34.3743 12.8252C34.5101 12.411 34.362 11.9564 34.0082 11.7018L31.1359 9.63487C30.3478 9.06769 30.749 7.82319 31.72 7.82319H35.2907C35.7229 7.82319 36.1062 7.54555 36.2409 7.13489L37.3507 3.75198Z" fill="#070707"/>
  <path d="M92.17 3.75198C92.4711 2.83425 93.7693 2.83424 94.0704 3.75198L95.1801 7.13489C95.3148 7.54555 95.6981 7.82319 96.1303 7.82319H99.701C100.672 7.82319 101.073 9.06768 100.285 9.63487L97.4128 11.7018C97.059 11.9564 96.9109 12.411 97.0468 12.8252L98.1477 16.1814C98.4494 17.101 97.399 17.8701 96.6135 17.3048L93.7043 15.2113C93.3554 14.9602 92.885 14.9602 92.5361 15.2113L89.6269 17.3048C88.8413 17.8701 87.7909 17.101 88.0926 16.1814L89.1936 12.8252C89.3295 12.411 89.1814 11.9564 88.8275 11.7018L85.9553 9.63487C85.1671 9.06769 85.5683 7.82319 86.5394 7.82319H90.1101C90.5423 7.82319 90.9255 7.54555 91.0603 7.13489L92.17 3.75198Z" fill="#E5E5E5"/>
  <path d="M65.0439 3.8947C65.278 3.18087 66.2948 3.18087 66.529 3.8947L67.8965 8.06349C68.0012 8.38278 68.3009 8.59887 68.639 8.59887H73.0599C73.817 8.59887 74.1312 9.5615 73.5181 10.0027L69.9453 12.5738C69.6708 12.7713 69.5559 13.1221 69.6609 13.4422L71.0265 17.605C71.2608 18.3192 70.4382 18.9142 69.8258 18.4734L66.2446 15.8963C65.9713 15.6996 65.6016 15.6996 65.3282 15.8963L61.7471 18.4734C61.1346 18.9142 60.312 18.3192 60.5463 17.605L61.9119 13.4422C62.0169 13.1221 61.902 12.7713 61.6275 12.5738L58.0547 10.0027C57.4417 9.56151 57.7559 8.59887 58.5129 8.59887H62.9338C63.2719 8.59887 63.5716 8.38278 63.6763 8.06349L65.0439 3.8947Z" fill="#E5E5E5"/>
  <path d="M119.58 3.75198C119.881 2.83425 121.179 2.83425 121.48 3.75198L122.59 7.13489C122.724 7.54555 123.108 7.82319 123.54 7.82319H127.111C128.082 7.82319 128.483 9.06768 127.695 9.63487L124.823 11.7018C124.469 11.9564 124.321 12.411 124.456 12.8252L125.557 16.1814C125.859 17.101 124.809 17.8701 124.023 17.3048L121.114 15.2113C120.765 14.9602 120.295 14.9602 119.946 15.2113L117.037 17.3048C116.251 17.8701 115.201 17.101 115.502 16.1814L116.603 12.8252C116.739 12.411 116.591 11.9564 116.237 11.7018L113.365 9.63487C112.577 9.06769 112.978 7.82319 113.949 7.82319H117.52C117.952 7.82319 118.335 7.54555 118.47 7.13489L119.58 3.75198Z" fill="#E5E5E5"/>
</svg>

<svg width="131" height="22" fill="none" xmlns="http://www.w3.org/2000/svg"><path d="M9.941 3.752c.301-.918 1.6-.918 1.9 0l1.11 3.383a1 1 0 00.95.688h3.571c.971 0 1.372 1.245.584 1.812l-2.872 2.067a1 1 0 00-.366 1.123l1.1 3.356c.302.92-.748 1.69-1.534 1.124l-2.909-2.094a1 1 0 00-1.168 0l-2.91 2.094c-.785.565-1.835-.204-1.533-1.124l1.1-3.356a1 1 0 00-.365-1.123L3.726 9.635c-.788-.567-.387-1.812.584-1.812h3.571a1 1 0 00.95-.688l1.11-3.383zm27.409 0c.302-.918 1.6-.918 1.901 0l1.11 3.383a1 1 0 00.95.688h3.57c.972 0 1.373 1.245.585 1.812l-2.873 2.067a1 1 0 00-.366 1.123l1.101 3.356c.302.92-.748 1.69-1.534 1.124l-2.91-2.094a1 1 0 00-1.167 0l-2.91 2.094c-.785.565-1.835-.204-1.534-1.124l1.101-3.356a1 1 0 00-.366-1.123l-2.872-2.067c-.788-.567-.387-1.812.584-1.812h3.57a1 1 0 00.95-.688l1.11-3.383z" fill="#070707"/><path d="M92.17 3.752c.301-.918 1.6-.918 1.9 0l1.11 3.383a1 1 0 00.95.688h3.571c.971 0 1.372 1.245.584 1.812l-2.872 2.067a1 1 0 00-.366 1.123l1.1 3.356c.302.92-.748 1.69-1.534 1.124l-2.909-2.094a1 1 0 00-1.168 0l-2.91 2.094c-.785.565-1.835-.204-1.533-1.124l1.1-3.356a1 1 0 00-.365-1.123l-2.873-2.067c-.788-.567-.387-1.812.584-1.812h3.571a1 1 0 00.95-.688l1.11-3.383zm-27.126.143c.234-.714 1.25-.714 1.485 0l1.368 4.168a.78.78 0 00.742.536h4.42c.758 0 1.072.963.46 1.404l-3.574 2.57a.773.773 0 00-.284.87l1.365 4.162c.235.714-.588 1.31-1.2.868l-3.581-2.577a.785.785 0 00-.917 0l-3.58 2.577c-.613.441-1.436-.154-1.202-.868l1.366-4.163a.773.773 0 00-.285-.868l-3.572-2.571c-.613-.441-.3-1.404.458-1.404h4.42a.78.78 0 00.743-.536l1.368-4.168zm54.536-.143c.301-.918 1.599-.918 1.9 0l1.11 3.383a1 1 0 00.95.688h3.571c.971 0 1.372 1.245.584 1.812l-2.872 2.067a1 1 0 00-.367 1.123l1.101 3.356c.302.92-.748 1.69-1.534 1.124l-2.909-2.094a1 1 0 00-1.168 0l-2.909 2.094c-.786.565-1.836-.204-1.535-1.124l1.101-3.356a1 1 0 00-.366-1.123l-2.872-2.067c-.788-.567-.387-1.812.584-1.812h3.571a1 1 0 00.95-.688l1.11-3.383z" fill="#E5E5E5"/></svg>
